X:62
T:Hymn to the Saviour
T:Laoidh an t-Slanuighear
R:Slow Air
S:Simon Fraser Collection
N:No.56
O:Scottish
M:C
L:1/8
Q:1/4=100
K:G
D/E/F|G>AB>A G>ED>F|G<B A2 G2 zB/c/|de/f/ g>a gdBd|G>AB^d e2 zB/c/|
de/f/ g>ag>f ef/g/|dBAG E2 zE/4D/4E/4F/4|G>D EG e2 g2|dB A2 G2:|
G/A/B|c>de>^c dDDe|d<B A2 G2 zd/4e/4f/|g>ab>a g>dBd|B>AB^d e2 zg/4f/4g/4
a/4|
b>ag>f g>f ef/g/|dBAG E2 zD/4E/4F/|G>DEG e2 g2|dB A2 G2||

